flaticon/security/keyhole.svg

<svg xmlns="http://www.w3.org/2000/svg" width="32" height="32" viewBox="0 0 24 24">
    <path d="M 15.601562 8.800781 C 15.601562 6.816406 13.984375 5.199219 12 5.199219 C 10.015625 5.199219 8.398438 6.816406 8.398438 8.800781 C 8.398438 9.925781 8.921875 10.976562 9.808594 11.65625 L 8.738281 19.199219 L 15.261719 19.199219 L 14.191406 11.65625 C 15.078125 10.976562 15.601562 9.925781 15.601562 8.800781 Z M 14.339844 18.398438 L 9.660156 18.398438 L 10.671875 11.277344 L 10.460938 11.136719 C 9.671875 10.617188 9.199219 9.742188 9.199219 8.800781 C 9.199219 7.257812 10.457031 6 12 6 C 13.542969 6 14.800781 7.257812 14.800781 8.800781 C 14.800781 9.742188 14.328125 10.617188 13.539062 11.136719 L 13.328125 11.277344 Z M 14.339844 18.398438"/>
    <path d="M 12 0 C 5.382812 0 0 5.382812 0 12 C 0 18.617188 5.382812 24 12 24 C 18.617188 24 24 18.617188 24 12 C 24 5.382812 18.617188 0 12 0 Z M 12 23.199219 C 5.824219 23.199219 0.800781 18.175781 0.800781 12 C 0.800781 5.824219 5.824219 0.800781 12 0.800781 C 18.175781 0.800781 23.199219 5.824219 23.199219 12 C 23.199219 18.175781 18.175781 23.199219 12 23.199219 Z M 12 23.199219"/>
</svg>

<svg xmlns="http://www.w3.org/2000/svg" width="32" height="32" viewBox="0 0 24 24">
    <path d="M15.602 8.8A3.608 3.608 0 0 0 12 5.2a3.608 3.608 0 0 0-3.602 3.6c0 1.126.524 2.177 1.41 2.856L8.739 19.2h6.524l-1.07-7.543a3.593 3.593 0 0 0 1.41-2.855zm-1.262 9.598H9.66l1.012-7.12-.211-.141A2.794 2.794 0 0 1 9.199 8.8C9.2 7.258 10.457 6 12 6c1.543 0 2.8 1.258 2.8 2.8 0 .942-.472 1.817-1.26 2.337l-.212.14zm0 0"/>
    <path d="M12 0C5.383 0 0 5.383 0 12s5.383 12 12 12 12-5.383 12-12S18.617 0 12 0zm0 23.2C5.824 23.2.8 18.175.8 12 .8 5.824 5.825.8 12 .8 18.176.8 23.2 5.825 23.2 12c0 6.176-5.024 11.2-11.2 11.2zm0 0"/>
</svg>
